X: 41762
T: Vargus's
R: jig
M: 6/8
K: Gmajor
|:d/c/|B2B GAG|D2G G2A|BcB ABG|F2A d2c|
BcB GAG|D2G G2A|Bcd ABc|B2G G2:|
|:B/c/|d2g g2f|e2d cBA|e2a a2g|fed d3|
d2g gag|e2g gag|Bcd ABc|B2G G2:|

